packages/layout/src/images/logo-dans-white.svg

<?xml version="1.0" encoding="UTF-8" standalone="no"?><!DOCTYPE svg PUBLIC "-//W3C//DTD SVG 1.1//EN" "http://www.w3.org/Graphics/SVG/1.1/DTD/svg11.dtd"><svg width="100%" height="100%" viewBox="0 0 193 50" version="1.1" style="fill-rule:evenodd;clip-rule:evenodd;stroke-linejoin:round;stroke-miterlimit:2;"><rect id="Artboard1" x="0" y="0" width="192.366" height="49.119" style="fill:none;"/><g><path d="M39,16.9c-3,-12.2 -13.8,-15.6 -25.8,-15.6l-12.5,-0l0,46.1l5.6,-0l0,-30.5l3.7,-0l0,-8.3l5.2,-0c5.5,-0 10.9,3 13.5,8.3l-12,-0l0,30.5l2.5,-0c10.8,-0 21.2,-8 21.2,-22.1c0.1,-3.1 -0.4,-5.9 -1.4,-8.4" style="fill:#fff;fill-rule:nonzero;"/><path d="M82.4,16.9l-13.7,-0l5.3,-15.5l-8.1,-0l-6,15.5l-11.9,30.6l9.5,-0l4,-10.6l18.7,-0l4,10.6l10.2,-0l-12,-30.6Z" style="fill:#fff;fill-rule:nonzero;"/><path d="M139.7,1.4l-0,28.3l-6.5,-0l-14.4,-28.3l-11.3,-0l-0,46.1l8.8,-0l-0,-30.6l2.1,-0l15.7,30.6l11.3,-0l0,-17.8l5.3,-0l-0,-28.3l-11,-0" style="fill:#fff;fill-rule:nonzero;"/><path d="M175.4,14.3c0,-5 4.1,-6.4 7.3,-6.4c3.1,-0 6.2,0.7 9.1,1.9l0,-7.8c-3.1,-0.9 -6.4,-1.3 -9.9,-1.3c-8.1,-0 -17.1,3.8 -17.1,14.1c0,7.1 4.3,11 8.7,13.8c0.2,0.1 1.7,-2.3 1.9,-2.2c5.2,2.2 10.6,4.3 10.6,8.8c0,4.2 -4.7,5.9 -8.2,5.9c-0.9,-0 -1.9,-0.1 -2.8,-0.2l0,7.3c1,0.1 2.1,0.1 3.3,0.1c5.3,-0 10.2,-1.3 13.4,-4.2l0,-18.9c-5.8,-5.3 -16.3,-5.1 -16.3,-10.9" style="fill:#fff;fill-rule:nonzero;"/></g></svg>

<?xml version="1.0" encoding="UTF-8" standalone="no"?>
<!DOCTYPE svg PUBLIC "-//W3C//DTD SVG 1.1//EN" "http://www.w3.org/Graphics/SVG/1.1/DTD/svg11.dtd">
<svg width="100%" height="100%" viewBox="0 0 193 50" version="1.1" xmlns="http://www.w3.org/2000/svg" xmlns:xlink="http://www.w3.org/1999/xlink" xml:space="preserve" xmlns:serif="http://www.serif.com/" style="fill-rule:evenodd;clip-rule:evenodd;stroke-linejoin:round;stroke-miterlimit:2;">
    <rect id="Artboard1" x="0" y="0" width="192.366" height="49.119" style="fill:none;"/>
    <g>
        <path d="M39,16.9C36,4.7 25.2,1.3 13.2,1.3L0.7,1.3L0.7,47.4L6.3,47.4L6.3,16.9L10,16.9L10,8.6L15.2,8.6C20.7,8.6 26.1,11.6 28.7,16.9L16.7,16.9L16.7,47.4L19.2,47.4C30,47.4 40.4,39.4 40.4,25.3C40.5,22.2 40,19.4 39,16.9" style="fill:white;fill-rule:nonzero;"/>
        <path d="M82.4,16.9L68.7,16.9L74,1.4L65.9,1.4L59.9,16.9L48,47.5L57.5,47.5L61.5,36.9L80.2,36.9L84.2,47.5L94.4,47.5L82.4,16.9Z" style="fill:white;fill-rule:nonzero;"/>
        <path d="M139.7,1.4L139.7,29.7L133.2,29.7L118.8,1.4L107.5,1.4L107.5,47.5L116.3,47.5L116.3,16.9L118.4,16.9L134.1,47.5L145.4,47.5L145.4,29.7L150.7,29.7L150.7,1.4L139.7,1.4" style="fill:white;fill-rule:nonzero;"/>
        <path d="M175.4,14.3C175.4,9.3 179.5,7.9 182.7,7.9C185.8,7.9 188.9,8.6 191.8,9.8L191.8,2C188.7,1.1 185.4,0.7 181.9,0.7C173.8,0.7 164.8,4.5 164.8,14.8C164.8,21.9 169.1,25.8 173.5,28.6C173.7,28.7 175.2,26.3 175.4,26.4C180.6,28.6 186,30.7 186,35.2C186,39.4 181.3,41.1 177.8,41.1C176.9,41.1 175.9,41 175,40.9L175,48.2C176,48.3 177.1,48.3 178.3,48.3C183.6,48.3 188.5,47 191.7,44.1L191.7,25.2C185.9,19.9 175.4,20.1 175.4,14.3" style="fill:white;fill-rule:nonzero;"/>
    </g>
</svg>
